icons/svg/bell-off.svg

﻿<?xml version="1.0" encoding="utf-8"?>
<!DOCTYPE svg PUBLIC "-//W3C//DTD SVG 1.1//EN" "http://www.w3.org/Graphics/SVG/1.1/DTD/svg11.dtd">
<svg xmlns="http://www.w3.org/2000/svg" xmlns:xlink="http://www.w3.org/1999/xlink" version="1.1" baseProfile="full" width="24" height="24" viewBox="0 0 24.00 24.00" enable-background="new 0 0 24.00 24.00" xml:space="preserve">
	<path fill="#000000" fill-opacity="1" stroke-width="0.2" stroke-linejoin="round" d="M 14,20C 14,21.1046 13.1046,22 12,22C 10.8954,22 10,21.1046 10,20L 14,20 Z M 19.7379,21.5663L 17.1716,19L 3,19L 6,16L 6,10C 6,9.34584 6.10469,8.71611 6.29824,8.12667L 3.47443,5.30287L 4.88864,3.88865L 7.28676,6.28676L 21.1521,20.1521L 19.7379,21.5663 Z M 11,4.08298L 11,3.00003C 11,2.44775 11.4477,2.00004 12,2.00004C 12.5523,2.00004 13,2.44775 13,3.00003L 13,4.08298C 15.8377,4.55905 18,7.02702 18,10L 18,14.1716L 8.77071,4.94229C 9.43581,4.51675 10.1904,4.21881 11,4.08298 Z "/>
</svg>

<svg xmlns="http://www.w3.org/2000/svg" version="1.1" baseProfile="full" width="24" height="24" viewBox="0 0 24.00 24.00" xml:space="preserve"><path fill="#000" fill-opacity="1" stroke-width=".2" stroke-linejoin="round" d="M14 20c0 1.105-.895 2-2 2s-2-.895-2-2h4zm5.738 1.566L17.172 19H3l3-3v-6c0-.654.105-1.284.298-1.873L3.474 5.303 4.89 3.89l2.397 2.397 13.865 13.865-1.414 1.414zM11 4.083V3c0-.552.448-1 1-1s1 .448 1 1v1.083c2.838.476 5 2.944 5 5.917v4.172l-9.23-9.23c.666-.425 1.42-.723 2.23-.86z"/></svg>
